storage/app/icons/phosphoricons/light/push-pin-simple-slash-light.svg

<svg xmlns="http://www.w3.org/2000/svg" fill="currentColor" viewBox="0 0 256 256"><path d="M85.25 40a6 6 0 0 1 6-6H192a6 6 0 0 1 0 12h-8.85l19.17 108.64a6 6 0 0 1-4.86 7 5.4 5.4 0 0 1-1.05.1 6 6 0 0 1-5.9-5L171 46H91.25a6 6 0 0 1-6-6M212 220.44a6 6 0 0 1-8.48-.4L169 182h-35v58a6 6 0 0 1-12 0v-58H40a6 6 0 0 1 0-12h11l17.38-98.67L43.56 44a6 6 0 0 1 8.88-8l160 176a6 6 0 0 1-.44 8.44M158 170 78.58 82.56 63.15 170Z"/></svg>

<svg xmlns="http://www.w3.org/2000/svg" viewBox="0 0 256 256" fill="currentColor"><path d="M85.25,40a6,6,0,0,1,6-6H192a6,6,0,0,1,0,12h-8.85l19.17,108.64a6,6,0,0,1-4.86,7,5.41,5.41,0,0,1-1.05.1,6,6,0,0,1-5.9-5L171,46H91.25A6,6,0,0,1,85.25,40ZM212,220.44a6,6,0,0,1-8.48-.4L169,182H134v58a6,6,0,0,1-12,0V182H40a6,6,0,0,1,0-12H51L68.38,71.33,43.56,44A6,6,0,0,1,52.44,36l160,176A6,6,0,0,1,212,220.44Zm-54-50.44L78.58,82.56,63.15,170Z"/></svg>
